Hatter-kde/actions/16/black_sum.svg

<?xml version="1.0" encoding="UTF-8"?>
<svg viewBox="0 0 16 16" xmlns="http://www.w3.org/2000/svg">
 <defs id="defs3051">
  <style id="current-color-scheme" type="text/css">.ColorScheme-Text {
        color:#363636;
      }</style>
 </defs>
 <path class="ColorScheme-Text" d="m2 2v0.03125 0.96875l2.75 5-2.75 5v0.96875 0.03125h0.0625 0.59375 6.3438 5v-1-1h-1v1h-9.7812l2.6562-4.7812 0.125-0.21875-0.125-0.21875-2.6562-4.7812h9.7812v1h1v-1-1h-7-4.3438-0.59375-0.0625z" fill="currentColor"/>
</svg>

<svg xmlns="http://www.w3.org/2000/svg" viewBox="0 0 16 16">
  <defs id="defs3051">
    <style type="text/css" id="current-color-scheme">
      .ColorScheme-Text {
        color:#363636;
      }
      </style>
  </defs>
 <path style="fill:currentColor;fill-opacity:1;stroke:none" 
     d="M 2 2 L 2 2.03125 L 2 3 L 4.75 8 L 2 13 L 2 13.96875 L 2 14 L 2.0625 14 L 2.65625 14 L 9 14 L 14 14 L 14 13 L 14 12 L 13 12 L 13 13 L 3.21875 13 L 5.875 8.21875 L 6 8 L 5.875 7.78125 L 3.21875 3 L 13 3 L 13 4 L 14 4 L 14 3 L 14 2 L 7 2 L 2.65625 2 L 2.0625 2 L 2 2 z "
     class="ColorScheme-Text"
     />
</svg>
